src/images/bookmarks.svg

<svg width="21" height="24" viewBox="0 0 21 24" fill="none" xmlns="http://www.w3.org/2000/svg">
<path d="M19.8083 23.8416C19.6252 23.8416 19.4443 23.7833 19.2927 23.6736L10.5917 17.341L1.89067 23.676C1.62467 23.8673 1.27232 23.8976 0.97832 23.746C0.686653 23.5978 0.5 23.2968 0.5 22.9678V2.95831C0.5 1.51165 1.67833 0.333313 3.125 0.333313H18.056C19.5027 0.333313 20.681 1.51165 20.681 2.95831V22.9666C20.681 23.2956 20.4967 23.5966 20.2027 23.746C20.079 23.8101 19.9425 23.8416 19.806 23.8416H19.8083ZM10.5917 15.3833C10.7725 15.3833 10.9533 15.4393 11.105 15.5513L18.9333 21.2481V2.95831C18.9333 2.47765 18.5402 2.08331 18.0583 2.08331H3.125C2.64317 2.08331 2.25 2.47765 2.25 2.95831V21.2481L10.0783 15.5513C10.23 15.4393 10.4108 15.3833 10.5917 15.3833Z" fill="black"/>
</svg>

<svg width="21" height="24" fill="none" xmlns="http://www.w3.org/2000/svg"><path d="M19.808 23.842a.88.88 0 0 1-.515-.168l-8.701-6.333-8.701 6.335A.876.876 0 0 1 .5 22.968V2.958A2.629 2.629 0 0 1 3.125.333h14.931a2.629 2.629 0 0 1 2.625 2.625v20.009a.874.874 0 0 1-.875.875h.002Zm-9.216-8.459c.18 0 .361.056.513.168l7.828 5.697V2.958a.878.878 0 0 0-.875-.875H3.125a.878.878 0 0 0-.875.875v18.29l7.828-5.697a.864.864 0 0 1 .514-.168Z" fill="#000"/></svg>
